2 Export/Icons/Brands/Stack Overflow.svg

<svg xmlns="http://www.w3.org/2000/svg" xmlns:xlink="http://www.w3.org/1999/xlink" width="24" height="24" viewBox="0 0 24 24">
  <defs>
    <path id="stack-overflow-a" d="M16.8565,19.39875 L16.8565,14.59575 L18.457,14.59575 L18.457,21 L4,21 L4,14.59575 L5.5975,14.59575 L5.5975,19.39875 L16.8565,19.39875 L16.8565,19.39875 Z M7.20025,17.79825 L15.2545,17.79825 L15.2545,16.1955 L7.20025,16.1955 L7.20025,17.79825 Z M7.3945,14.15925 L15.2545,15.801 L15.59275,14.2485 L7.73425,12.60825 L7.3945,14.15925 Z M8.41375,10.36725 L15.6925,13.76475 L16.36975,12.30225 L9.09025,8.90475 L8.41375,10.35675 L8.41375,10.36725 Z M10.45,6.7785 L16.61275,11.91975 L17.632,10.70475 L11.47,5.565 L10.4575,6.77775 L10.45,6.7785 L10.45,6.7785 Z M14.43025,3 L13.12075,3.9705 L17.9245,10.4235 L19.234,9.453 L14.42875,3 L14.43025,3 Z"/>
  </defs>
  <g fill="none" fill-rule="evenodd">
    <polygon points="0 0 24 0 24 24 0 24"/>
    <mask id="stack-overflow-b" fill="#fff">
      <use xlink:href="#stack-overflow-a"/>
    </mask>
    <use fill="#000" xlink:href="#stack-overflow-a"/>
    <g fill="#000" mask="url(#stack-overflow-b)">
      <rect width="24" height="24"/>
    </g>
  </g>
</svg>

<svg xmlns="http://www.w3.org/2000/svg" xmlns:xlink="http://www.w3.org/1999/xlink" width="24" height="24" viewBox="0 0 24 24">
  <defs>
    <path id="stack-overflow-a" d="M16.857 19.399v-4.803h1.6V21H4v-6.404h1.598v4.803h11.259zm-9.657-1.6h8.055v-1.604H7.2v1.603zm.194-3.64l7.86 1.642.339-1.553-7.859-1.64-.34 1.551zm1.02-3.792l7.279 3.398.677-1.463-7.28-3.397-.676 1.452v.01zm2.036-3.589l6.163 5.142 1.019-1.215-6.162-5.14-1.013 1.213h-.007zM14.43 3l-1.31.97 4.804 6.454 1.31-.971L14.429 3h.001z"/>
  </defs>
  <g fill="none" fill-rule="evenodd">
    <polygon points="0 0 24 0 24 24 0 24"/>
    <mask id="stack-overflow-b" fill="#fff">
      <use xlink:href="#stack-overflow-a"/>
    </mask>
    <use fill="#000" xlink:href="#stack-overflow-a"/>
    <g fill="#000" mask="url(#stack-overflow-b)">
      <rect width="24" height="24"/>
    </g>
  </g>
</svg>
